flaticon/grooming/manicure-10.svg

<svg xmlns="http://www.w3.org/2000/svg" width="32" height="32" viewBox="0 0 24 24">
    <path d="M15.167969 20.378906L8.832031 20.378906C8.558594 20.378906 8.378906 20.558594 8.378906 20.832031 8.378906 21.101562 8.558594 21.28125 8.832031 21.28125L15.167969 21.28125C15.441406 21.28125 15.621094 21.101562 15.621094 20.832031 15.621094 20.558594 15.441406 20.378906 15.167969 20.378906zM15.167969 18.566406L8.832031 18.566406C8.558594 18.566406 8.378906 18.746094 8.378906 19.019531 8.378906 19.289062 8.558594 19.472656 8.832031 19.472656L15.167969 19.472656C15.441406 19.472656 15.621094 19.289062 15.621094 19.019531 15.621094 18.746094 15.441406 18.566406 15.167969 18.566406zM15.167969 18.566406"/>
    <path d="M 16.875 6.371094 C 16.671875 4.433594 16.160156 2.40625 14.898438 0.226562 C 14.808594 0.0898438 14.671875 0 14.492188 0 L 9.554688 0 C 9.375 0 9.238281 0.0898438 9.148438 0.226562 C 7.914062 2.308594 7.378906 4.375 7.15625 6.351562 C 5.628906 7.355469 4.753906 9.046875 4.753906 10.824219 L 4.753906 18.113281 C 4.753906 21.375 7.382812 24 10.640625 24 L 13.359375 24 C 16.617188 24 19.246094 21.375 19.246094 18.113281 L 19.246094 10.824219 C 19.246094 9.011719 18.382812 7.375 16.875 6.371094 Z M 9.78125 0.90625 L 9.78125 0.949219 L 10.644531 0.949219 C 10.664062 1.195312 10.839844 1.359375 11.09375 1.359375 C 11.351562 1.359375 11.527344 1.195312 11.546875 0.949219 L 12.453125 0.949219 C 12.472656 1.195312 12.648438 1.359375 12.90625 1.359375 C 13.160156 1.359375 13.335938 1.195312 13.355469 0.949219 L 14.171875 0.949219 C 14.886719 2.1875 15.339844 3.375 15.625 4.527344 C 15.625 4.527344 15.625 4.527344 15.621094 4.527344 C 15.351562 4.527344 15.167969 4.753906 15.167969 4.980469 C 15.167969 5.253906 15.351562 5.433594 15.621094 5.433594 C 15.691406 5.433594 15.753906 5.421875 15.8125 5.398438 C 15.941406 6.125 16.011719 6.835938 16.050781 7.539062 C 15.992188 7.359375 15.835938 7.246094 15.621094 7.246094 C 15.351562 7.246094 15.167969 7.472656 15.167969 7.699219 C 15.167969 7.96875 15.351562 8.152344 15.621094 8.152344 C 15.855469 8.152344 16.019531 8.019531 16.0625 7.808594 C 16.070312 7.914062 16.074219 8.019531 16.074219 8.125 L 16.074219 12.136719 C 16.074219 12.382812 16.046875 12.625 15.996094 12.859375 C 15.917969 12.746094 15.785156 12.679688 15.621094 12.679688 C 15.351562 12.679688 15.167969 12.90625 15.167969 13.132812 C 15.167969 13.402344 15.351562 13.585938 15.621094 13.585938 C 15.667969 13.585938 15.707031 13.578125 15.746094 13.570312 C 15.597656 13.878906 15.398438 14.160156 15.164062 14.40625 C 15.128906 14.179688 14.957031 14.039062 14.71875 14.039062 C 14.445312 14.039062 14.265625 14.265625 14.265625 14.492188 C 14.265625 14.695312 14.367188 14.847656 14.535156 14.910156 C 14.035156 15.21875 13.449219 15.394531 12.816406 15.394531 L 11.183594 15.394531 C 10.550781 15.394531 9.964844 15.21875 9.464844 14.910156 C 9.632812 14.847656 9.734375 14.695312 9.734375 14.492188 C 9.734375 14.21875 9.554688 14.039062 9.28125 14.039062 C 9.046875 14.039062 8.875 14.210938 8.839844 14.40625 C 8.601562 14.160156 8.402344 13.878906 8.253906 13.570312 C 8.292969 13.578125 8.332031 13.585938 8.378906 13.585938 C 8.648438 13.585938 8.832031 13.402344 8.832031 13.132812 C 8.832031 12.859375 8.648438 12.679688 8.378906 12.679688 C 8.214844 12.679688 8.085938 12.761719 8.007812 12.871094 C 7.953125 12.636719 7.925781 12.390625 7.925781 12.136719 L 7.925781 8.507812 C 7.929688 8.289062 7.9375 8.074219 7.949219 7.855469 C 8.003906 8.039062 8.164062 8.152344 8.378906 8.152344 C 8.648438 8.152344 8.832031 7.96875 8.832031 7.699219 C 8.832031 7.425781 8.648438 7.246094 8.378906 7.246094 C 8.183594 7.246094 8.035156 7.359375 7.96875 7.507812 C 8.011719 6.820312 8.085938 6.117188 8.207031 5.40625 C 8.257812 5.425781 8.316406 5.433594 8.378906 5.433594 C 8.648438 5.433594 8.832031 5.253906 8.832031 4.980469 C 8.832031 4.710938 8.652344 4.53125 8.386719 4.527344 C 8.664062 3.332031 9.101562 2.121094 9.78125 0.90625 Z M 18.339844 18.113281 C 18.339844 20.875 16.121094 23.09375 13.359375 23.09375 L 10.640625 23.09375 C 7.878906 23.09375 5.660156 20.875 5.660156 18.113281 L 5.660156 10.824219 C 5.660156 9.601562 6.160156 8.421875 7.019531 7.609375 C 7.019531 7.609375 7.019531 8.222656 7.019531 8.507812 C 7 9.253906 7.007812 9.980469 7.019531 10.6875 C 7.019531 11.140625 7.019531 11.558594 7.019531 11.726562 C 7.019531 11.796875 7.019531 12.136719 7.019531 12.136719 C 7.019531 12.316406 7.03125 12.492188 7.050781 12.667969 C 7.0625 12.738281 7.070312 12.808594 7.082031 12.875 C 7.089844 12.910156 7.097656 12.945312 7.101562 12.976562 C 7.488281 14.878906 9.164062 16.300781 11.183594 16.300781 L 12.816406 16.300781 C 13.824219 16.300781 14.75 15.945312 15.46875 15.351562 C 15.496094 15.332031 15.519531 15.3125 15.546875 15.289062 C 15.59375 15.246094 15.644531 15.199219 15.691406 15.15625 C 15.742188 15.109375 15.789062 15.0625 15.832031 15.011719 C 15.902344 14.941406 15.96875 14.867188 16.03125 14.789062 C 16.054688 14.761719 16.074219 14.738281 16.09375 14.710938 C 16.136719 14.660156 16.175781 14.605469 16.214844 14.550781 C 16.253906 14.496094 16.289062 14.441406 16.328125 14.386719 C 16.363281 14.328125 16.398438 14.269531 16.429688 14.214844 C 16.449219 14.183594 16.464844 14.15625 16.480469 14.125 C 16.511719 14.066406 16.542969 14.007812 16.570312 13.945312 C 16.835938 13.398438 16.980469 12.785156 16.980469 12.136719 L 16.980469 10.460938 C 16.992188 9.675781 17.003906 8.886719 16.980469 8.078125 L 16.980469 7.609375 C 17.839844 8.46875 18.339844 9.601562 18.339844 10.824219 Z M 18.339844 18.113281"/>
    <path d="M13.8125 12.679688C13.539062 12.679688 13.359375 12.90625 13.359375 13.132812 13.359375 13.402344 13.539062 13.585938 13.8125 13.585938 14.082031 13.585938 14.265625 13.402344 14.265625 13.132812 14.265625 12.859375 14.082031 12.679688 13.8125 12.679688zM9.28125 11.320312C9.011719 11.320312 8.832031 11.546875 8.832031 11.773438 8.832031 12.046875 9.011719 12.226562 9.28125 12.226562 9.554688 12.226562 9.734375 12.046875 9.734375 11.773438 9.734375 11.5 9.554688 11.320312 9.28125 11.320312zM8.378906 10.867188C8.648438 10.867188 8.832031 10.6875 8.832031 10.414062 8.832031 10.144531 8.648438 9.960938 8.378906 9.960938 8.105469 9.960938 7.925781 10.1875 7.925781 10.414062 7.925781 10.6875 8.105469 10.867188 8.378906 10.867188zM10.1875 9.960938C9.917969 9.960938 9.734375 10.1875 9.734375 10.414062 9.734375 10.6875 9.917969 10.867188 10.1875 10.867188 10.460938 10.867188 10.640625 10.6875 10.640625 10.414062 10.640625 10.144531 10.460938 9.960938 10.1875 9.960938zM12 12.679688C11.726562 12.679688 11.546875 12.90625 11.546875 13.132812 11.546875 13.402344 11.726562 13.585938 12 13.585938 12.273438 13.585938 12.453125 13.402344 12.453125 13.132812 12.453125 12.859375 12.273438 12.679688 12 12.679688zM13.8125 10.867188C14.082031 10.867188 14.265625 10.6875 14.265625 10.414062 14.265625 10.144531 14.082031 9.960938 13.8125 9.960938 13.539062 9.960938 13.359375 10.1875 13.359375 10.414062 13.359375 10.6875 13.539062 10.867188 13.8125 10.867188zM15.621094 9.960938C15.351562 9.960938 15.167969 10.1875 15.167969 10.414062 15.167969 10.6875 15.351562 10.867188 15.621094 10.867188 15.894531 10.867188 16.074219 10.6875 16.074219 10.414062 16.074219 10.144531 15.894531 9.960938 15.621094 9.960938zM12 10.867188C12.273438 10.867188 12.453125 10.6875 12.453125 10.414062 12.453125 10.144531 12.273438 9.960938 12 9.960938 11.726562 9.960938 11.546875 10.1875 11.546875 10.414062 11.546875 10.6875 11.726562 10.867188 12 10.867188zM12.90625 14.039062C12.632812 14.039062 12.453125 14.265625 12.453125 14.492188 12.453125 14.761719 12.632812 14.945312 12.90625 14.945312 13.175781 14.945312 13.359375 14.761719 13.359375 14.492188 13.359375 14.21875 13.175781 14.039062 12.90625 14.039062zM11.09375 14.039062C10.824219 14.039062 10.640625 14.265625 10.640625 14.492188 10.640625 14.761719 10.824219 14.945312 11.09375 14.945312 11.367188 14.945312 11.546875 14.761719 11.546875 14.492188 11.546875 14.21875 11.367188 14.039062 11.09375 14.039062zM10.1875 12.679688C9.917969 12.679688 9.734375 12.90625 9.734375 13.132812 9.734375 13.402344 9.917969 13.585938 10.1875 13.585938 10.460938 13.585938 10.640625 13.402344 10.640625 13.132812 10.640625 12.859375 10.460938 12.679688 10.1875 12.679688zM11.09375 12.226562C11.367188 12.226562 11.546875 12.046875 11.546875 11.773438 11.546875 11.5 11.367188 11.320312 11.09375 11.320312 10.824219 11.320312 10.640625 11.546875 10.640625 11.773438 10.640625 12.046875 10.824219 12.226562 11.09375 12.226562zM12.90625 12.226562C13.175781 12.226562 13.359375 12.046875 13.359375 11.773438 13.359375 11.5 13.175781 11.320312 12.90625 11.320312 12.632812 11.320312 12.453125 11.546875 12.453125 11.773438 12.453125 12.046875 12.632812 12.226562 12.90625 12.226562zM14.71875 11.320312C14.445312 11.320312 14.265625 11.546875 14.265625 11.773438 14.265625 12.046875 14.445312 12.226562 14.71875 12.226562 14.988281 12.226562 15.167969 12.046875 15.167969 11.773438 15.167969 11.5 14.988281 11.320312 14.71875 11.320312zM9.28125 9.507812C9.554688 9.507812 9.734375 9.328125 9.734375 9.054688 9.734375 8.785156 9.554688 8.605469 9.28125 8.605469 9.011719 8.605469 8.832031 8.832031 8.832031 9.054688 8.832031 9.328125 9.011719 9.507812 9.28125 9.507812zM10.1875 8.152344C10.460938 8.152344 10.640625 7.96875 10.640625 7.699219 10.640625 7.425781 10.460938 7.246094 10.1875 7.246094 9.917969 7.246094 9.734375 7.472656 9.734375 7.699219 9.734375 7.96875 9.917969 8.152344 10.1875 8.152344zM13.8125 8.152344C14.082031 8.152344 14.265625 7.96875 14.265625 7.699219 14.265625 7.425781 14.082031 7.246094 13.8125 7.246094 13.539062 7.246094 13.359375 7.472656 13.359375 7.699219 13.359375 7.96875 13.539062 8.152344 13.8125 8.152344zM12 8.152344C12.273438 8.152344 12.453125 7.96875 12.453125 7.699219 12.453125 7.425781 12.273438 7.246094 12 7.246094 11.726562 7.246094 11.546875 7.472656 11.546875 7.699219 11.546875 7.96875 11.726562 8.152344 12 8.152344zM11.09375 8.605469C10.824219 8.605469 10.640625 8.832031 10.640625 9.054688 10.640625 9.328125 10.824219 9.507812 11.09375 9.507812 11.367188 9.507812 11.546875 9.328125 11.546875 9.054688 11.546875 8.785156 11.367188 8.605469 11.09375 8.605469zM12.90625 8.605469C12.632812 8.605469 12.453125 8.832031 12.453125 9.054688 12.453125 9.328125 12.632812 9.507812 12.90625 9.507812 13.175781 9.507812 13.359375 9.328125 13.359375 9.054688 13.359375 8.785156 13.175781 8.605469 12.90625 8.605469zM14.71875 8.605469C14.445312 8.605469 14.265625 8.832031 14.265625 9.054688 14.265625 9.328125 14.445312 9.507812 14.71875 9.507812 14.988281 9.507812 15.167969 9.328125 15.167969 9.054688 15.167969 8.785156 14.988281 8.605469 14.71875 8.605469zM9.28125 6.792969C9.554688 6.792969 9.734375 6.609375 9.734375 6.339844 9.734375 6.066406 9.554688 5.886719 9.28125 5.886719 9.011719 5.886719 8.832031 6.113281 8.832031 6.339844 8.832031 6.613281 9.011719 6.792969 9.28125 6.792969zM10.1875 4.527344C9.917969 4.527344 9.734375 4.753906 9.734375 4.980469 9.734375 5.253906 9.917969 5.433594 10.1875 5.433594 10.460938 5.433594 10.640625 5.253906 10.640625 4.980469 10.640625 4.710938 10.460938 4.527344 10.1875 4.527344zM13.8125 5.433594C14.082031 5.433594 14.265625 5.253906 14.265625 4.980469 14.265625 4.710938 14.082031 4.527344 13.8125 4.527344 13.539062 4.527344 13.359375 4.753906 13.359375 4.980469 13.359375 5.253906 13.539062 5.433594 13.8125 5.433594zM12 4.527344C11.726562 4.527344 11.546875 4.753906 11.546875 4.980469 11.546875 5.253906 11.726562 5.433594 12 5.433594 12.273438 5.433594 12.453125 5.253906 12.453125 4.980469 12.453125 4.710938 12.273438 4.527344 12 4.527344zM11.09375 5.886719C10.824219 5.886719 10.640625 6.113281 10.640625 6.339844 10.640625 6.609375 10.824219 6.792969 11.09375 6.792969 11.367188 6.792969 11.546875 6.609375 11.546875 6.339844 11.546875 6.066406 11.367188 5.886719 11.09375 5.886719zM12.90625 5.886719C12.632812 5.886719 12.453125 6.113281 12.453125 6.339844 12.453125 6.609375 12.632812 6.792969 12.90625 6.792969 13.175781 6.792969 13.359375 6.609375 13.359375 6.339844 13.359375 6.066406 13.175781 5.886719 12.90625 5.886719zM14.71875 5.886719C14.445312 5.886719 14.265625 6.113281 14.265625 6.339844 14.265625 6.609375 14.445312 6.792969 14.71875 6.792969 14.988281 6.792969 15.167969 6.609375 15.167969 6.339844 15.167969 6.066406 14.988281 5.886719 14.71875 5.886719zM9.28125 4.074219C9.554688 4.074219 9.734375 3.894531 9.734375 3.621094 9.734375 3.351562 9.554688 3.167969 9.28125 3.167969 9.011719 3.167969 8.832031 3.394531 8.832031 3.621094 8.832031 3.894531 9.011719 4.074219 9.28125 4.074219zM10.1875 2.71875C10.460938 2.71875 10.640625 2.535156 10.640625 2.265625 10.640625 1.992188 10.460938 1.8125 10.1875 1.8125 9.917969 1.8125 9.734375 2.039062 9.734375 2.265625 9.734375 2.535156 9.917969 2.71875 10.1875 2.71875zM13.8125 2.71875C14.082031 2.71875 14.265625 2.535156 14.265625 2.265625 14.265625 1.992188 14.082031 1.8125 13.8125 1.8125 13.539062 1.8125 13.359375 2.039062 13.359375 2.265625 13.359375 2.535156 13.539062 2.71875 13.8125 2.71875zM12 2.71875C12.273438 2.71875 12.453125 2.535156 12.453125 2.265625 12.453125 1.992188 12.273438 1.8125 12 1.8125 11.726562 1.8125 11.546875 2.039062 11.546875 2.265625 11.546875 2.535156 11.726562 2.71875 12 2.71875zM11.09375 4.074219C11.367188 4.074219 11.546875 3.894531 11.546875 3.621094 11.546875 3.351562 11.367188 3.167969 11.09375 3.167969 10.824219 3.167969 10.640625 3.394531 10.640625 3.621094 10.640625 3.894531 10.824219 4.074219 11.09375 4.074219zM12.90625 4.074219C13.175781 4.074219 13.359375 3.894531 13.359375 3.621094 13.359375 3.351562 13.175781 3.167969 12.90625 3.167969 12.632812 3.167969 12.453125 3.394531 12.453125 3.621094 12.453125 3.894531 12.632812 4.074219 12.90625 4.074219zM14.71875 4.074219C14.988281 4.074219 15.167969 3.894531 15.167969 3.621094 15.167969 3.351562 14.988281 3.167969 14.71875 3.167969 14.445312 3.167969 14.265625 3.394531 14.265625 3.621094 14.265625 3.894531 14.445312 4.074219 14.71875 4.074219zM14.71875 4.074219"/>
</svg>

<svg xmlns="http://www.w3.org/2000/svg" width="32" height="32" viewBox="0 0 24 24">
    <path d="M15.168 20.379H8.832c-.273 0-.453.18-.453.453 0 .27.18.45.453.45h6.336c.273 0 .453-.18.453-.45 0-.273-.18-.453-.453-.453zm0 0M15.168 18.566H8.832c-.273 0-.453.18-.453.454 0 .27.18.453.453.453h6.336c.273 0 .453-.184.453-.453 0-.274-.18-.454-.453-.454zm0 0"/>
    <path d="M16.875 6.371c-.203-1.937-.715-3.965-1.977-6.144A.472.472 0 0 0 14.492 0H9.555c-.18 0-.317.09-.407.227-1.234 2.082-1.77 4.148-1.992 6.125a5.34 5.34 0 0 0-2.402 4.472v7.29A5.876 5.876 0 0 0 10.64 24h2.718a5.876 5.876 0 0 0 5.887-5.887v-7.289c0-1.812-.863-3.449-2.371-4.453zM9.781.906V.95h.864c.02.246.195.41.449.41.258 0 .433-.164.453-.41h.906c.02.246.195.41.453.41.254 0 .43-.164.45-.41h.816a13.63 13.63 0 0 1 1.453 3.578h-.004a.456.456 0 0 0-.453.453c0 .274.184.454.453.454.07 0 .133-.012.191-.036.13.727.2 1.438.239 2.141-.059-.18-.215-.293-.43-.293a.456.456 0 0 0-.453.453c0 .27.184.453.453.453.234 0 .399-.132.441-.343.008.105.012.21.012.316v4.012c0 .246-.027.488-.078.722a.439.439 0 0 0-.375-.18.456.456 0 0 0-.453.454c0 .27.184.453.453.453.047 0 .086-.008.125-.016-.148.309-.348.59-.582.836-.035-.226-.207-.367-.445-.367a.453.453 0 0 0-.453.453c0 .203.101.356.27.418-.5.309-1.087.485-1.72.485h-1.632a3.253 3.253 0 0 1-1.72-.485c.169-.062.27-.215.27-.418 0-.273-.18-.453-.453-.453a.448.448 0 0 0-.441.367 3.194 3.194 0 0 1-.586-.836c.039.008.078.016.125.016a.43.43 0 0 0 .453-.453c0-.274-.184-.453-.453-.453a.45.45 0 0 0-.371.191 3.23 3.23 0 0 1-.082-.734v-3.63c.004-.218.011-.433.023-.652.055.184.215.297.43.297a.43.43 0 0 0 .453-.453c0-.273-.184-.453-.453-.453a.442.442 0 0 0-.41.262c.043-.688.117-1.39.238-2.102.05.02.11.028.172.028.27 0 .453-.18.453-.454 0-.27-.18-.449-.445-.453A13.678 13.678 0 0 1 9.78.907zm8.559 17.207a4.966 4.966 0 0 1-4.98 4.98h-2.72a4.966 4.966 0 0 1-4.98-4.98v-7.289c0-1.222.5-2.402 1.36-3.215v.899c-.02.746-.012 1.472 0 2.18V12.136c0 .18.011.355.03.531.013.07.02.14.032.207a4.156 4.156 0 0 0 4.102 3.426h1.632a4.152 4.152 0 0 0 2.653-.95c.027-.019.05-.039.078-.062l.144-.133a1.63 1.63 0 0 0 .141-.144 2.7 2.7 0 0 0 .262-.301c.043-.05.082-.106.12-.16.04-.055.075-.11.114-.164l.102-.172a2.568 2.568 0 0 0 .14-.27c.266-.547.41-1.16.41-1.808V10.46c.012-.785.024-1.574 0-2.383V7.61c.86.86 1.36 1.993 1.36 3.215zm0 0"/>
    <path d="M13.813 12.68a.453.453 0 0 0-.454.453c0 .27.18.453.454.453a.43.43 0 0 0 .453-.453c0-.274-.184-.453-.454-.453zm0 0M9.281 11.32c-.27 0-.449.227-.449.453 0 .274.18.454.45.454.273 0 .452-.18.452-.454 0-.273-.18-.453-.453-.453zm0 0M8.379 10.867c.27 0 .453-.18.453-.453a.43.43 0 0 0-.453-.453.453.453 0 0 0-.453.453c0 .274.18.453.453.453zm0 0M10.188 9.96a.456.456 0 0 0-.454.454c0 .274.184.453.454.453.273 0 .453-.18.453-.453 0-.27-.18-.453-.454-.453zm0 0M12 12.68a.453.453 0 0 0-.453.453c0 .27.18.453.453.453s.453-.184.453-.453c0-.274-.18-.453-.453-.453zm0 0M13.813 10.867c.269 0 .453-.18.453-.453a.43.43 0 0 0-.454-.453.453.453 0 0 0-.453.453c0 .274.18.453.454.453zm0 0M15.621 9.96a.456.456 0 0 0-.453.454c0 .274.184.453.453.453.274 0 .453-.18.453-.453 0-.27-.18-.453-.453-.453zm0 0M12 10.867c.273 0 .453-.18.453-.453 0-.27-.18-.453-.453-.453a.453.453 0 0 0-.453.453c0 .274.18.453.453.453zm0 0M12.906 14.04a.453.453 0 0 0-.453.452c0 .27.18.453.453.453a.43.43 0 0 0 .453-.453c0-.273-.183-.453-.453-.453zm0 0M11.094 14.04a.456.456 0 0 0-.453.452c0 .27.183.453.453.453.273 0 .453-.183.453-.453 0-.273-.18-.453-.453-.453zm0 0M10.188 12.68a.456.456 0 0 0-.454.453c0 .27.184.453.454.453.273 0 .453-.184.453-.453 0-.274-.18-.453-.454-.453zm0 0M11.094 12.227c.273 0 .453-.18.453-.454 0-.273-.18-.453-.453-.453a.456.456 0 0 0-.453.453c0 .274.183.454.453.454zm0 0M12.906 12.227c.27 0 .453-.18.453-.454 0-.273-.183-.453-.453-.453a.453.453 0 0 0-.453.453c0 .274.18.454.453.454zm0 0M14.719 11.32a.453.453 0 0 0-.453.453c0 .274.18.454.453.454.27 0 .449-.18.449-.454 0-.273-.18-.453-.45-.453zm0 0M9.281 9.508c.274 0 .453-.18.453-.453 0-.27-.18-.45-.453-.45-.27 0-.449.227-.449.45 0 .273.18.453.45.453zm0 0M10.188 8.152c.273 0 .453-.183.453-.453 0-.273-.18-.453-.454-.453a.456.456 0 0 0-.453.453c0 .27.184.453.454.453zm0 0M13.813 8.152a.43.43 0 0 0 .453-.453c0-.273-.184-.453-.454-.453a.453.453 0 0 0-.453.453c0 .27.18.453.454.453zm0 0M12 8.152c.273 0 .453-.183.453-.453 0-.273-.18-.453-.453-.453a.453.453 0 0 0-.453.453c0 .27.18.453.453.453zm0 0M11.094 8.605a.455.455 0 0 0-.453.45c0 .273.183.453.453.453.273 0 .453-.18.453-.453 0-.27-.18-.45-.453-.45zm0 0M12.906 8.605a.452.452 0 0 0-.453.45c0 .273.18.453.453.453.27 0 .453-.18.453-.453 0-.27-.183-.45-.453-.45zm0 0M14.719 8.605a.452.452 0 0 0-.453.45c0 .273.18.453.453.453.27 0 .449-.18.449-.453 0-.27-.18-.45-.45-.45zm0 0M9.281 6.793c.274 0 .453-.184.453-.453 0-.274-.18-.453-.453-.453-.27 0-.449.226-.449.453 0 .273.18.453.45.453zm0 0M10.188 4.527a.456.456 0 0 0-.454.453c0 .274.184.454.454.454.273 0 .453-.18.453-.454 0-.27-.18-.453-.454-.453zm0 0M13.813 5.434c.269 0 .453-.18.453-.454a.43.43 0 0 0-.454-.453.453.453 0 0 0-.453.453c0 .274.18.454.454.454zm0 0M12 4.527a.453.453 0 0 0-.453.453c0 .274.18.454.453.454s.453-.18.453-.454c0-.27-.18-.453-.453-.453zm0 0M11.094 5.887a.456.456 0 0 0-.453.453c0 .27.183.453.453.453.273 0 .453-.184.453-.453 0-.274-.18-.453-.453-.453zm0 0M12.906 5.887a.453.453 0 0 0-.453.453c0 .27.18.453.453.453a.43.43 0 0 0 .453-.453c0-.274-.183-.453-.453-.453zm0 0M14.719 5.887a.453.453 0 0 0-.453.453c0 .27.18.453.453.453.27 0 .449-.184.449-.453 0-.274-.18-.453-.45-.453zm0 0M9.281 4.074c.274 0 .453-.18.453-.453 0-.27-.18-.453-.453-.453-.27 0-.449.227-.449.453 0 .274.18.453.45.453zm0 0M10.188 2.719c.273 0 .453-.184.453-.453 0-.274-.18-.454-.454-.454a.456.456 0 0 0-.453.454c0 .27.184.453.454.453zm0 0M13.813 2.719a.43.43 0 0 0 .453-.453c0-.274-.184-.454-.454-.454a.453.453 0 0 0-.453.454c0 .27.18.453.454.453zm0 0M12 2.719c.273 0 .453-.184.453-.453 0-.274-.18-.454-.453-.454a.453.453 0 0 0-.453.454c0 .27.18.453.453.453zm0 0M11.094 4.074c.273 0 .453-.18.453-.453 0-.27-.18-.453-.453-.453a.456.456 0 0 0-.453.453c0 .274.183.453.453.453zm0 0M12.906 4.074c.27 0 .453-.18.453-.453a.43.43 0 0 0-.453-.453.453.453 0 0 0-.453.453c0 .274.18.453.453.453zm0 0M14.719 4.074c.27 0 .449-.18.449-.453 0-.27-.18-.453-.45-.453a.453.453 0 0 0-.452.453c0 .274.18.453.453.453zm0 0"/>
</svg>
